resources/light/tag.svg

<svg xmlns="http://www.w3.org/2000/svg" viewBox="0 0 16 16">
    <style type="text/css">.icon-canvas-transparent{opacity:0;fill:#F6F6F6;} .icon-vs-out{fill:#F6F6F6;} .icon-vs-bg{fill:#424242;} .icon-vs-fg{fill:#F0EFF1;}</style>
    <path class="icon-canvas-transparent" d="M16 16h-16v-16h16v16z" id="canvas"/>
    <path class="icon-vs-out" d="M16 8.333l-3.5 4.667h-11.5v-10h11.5l3.5 4.667v.666z" id="outline" style="display: none;"/>
    <path class="icon-vs-bg" d="M12 4h-10v8h10l3-4-3-4zm-1 5c-.553 0-1-.448-1-1s.447-1 1-1 1 .448 1 1-.447 1-1 1z" id="iconBg"/>
    <path class="icon-vs-fg" d="M12 8c0 .552-.447 1-1 1s-1-.448-1-1 .447-1 1-1 1 .448 1 1z" id="iconFg" style="display: none;"/>
</svg>

<svg width="16" height="16" viewBox="0 0 16 16" fill="none" xmlns="http://www.w3.org/2000/svg">
<path d="M12 4H2V12H12L15 8L12 4ZM11 9C10.447 9 10 8.552 10 8C10 7.448 10.447 7 11 7C11.553 7 12 7.448 12 8C12 8.552 11.553 9 11 9Z" stroke="#424242" stroke-linejoin="bevel"/>
</svg>
